!!!COM: Palestrina, Giovanni Perluigi da
!!!OPR: Missa Quinti toni
!!!OMD: Credo
!!!OTL: Crucifixus
**kern	**kern	**kern	**kern
*Itenor	*Icalto	*Icant	*Icant
!Tenor	!Altus	!Cantus 2	!Cantus 1
*clefGv2	*clefG2	*clefG2	*clefG2
*k[b-]	*k[b-]	*k[b-]	*k[b-]
*F:ion	*F:ion	*F:ion	*F:ion
*M4/2	*M4/2	*M4/2	*M4/2
=73	=73	=73	=73
0r	1r	0r	1.cc
.	[1f	.	.
.	.	.	2cc
=74	=74	=74	=74
0r	2f]	0r	1dd
.	2f	.	.
.	1g	.	1ee
=75	=75	=75	=75
0r	1a	0r	2r
.	.	.	1cc
.	2r	.	.
.	[2f	.	2cc
=76	=76	=76	=76
0r	2f]	0r	2dd
.	2g	.	2ee
.	2a	.	1ff
.	2b-	.	.
=77	=77	=77	=77
0r	4cc	1r	4ee
.	4b-	.	4dd
.	4a	.	4cc
.	4g	.	4b-
.	4f	[1cc	4a
.	4g	.	4g
.	[2a	.	4f
.	.	.	4g
=78	=78	=78	=78
0r	4a]	2cc]	4a
.	4g	.	4b-
.	2e	2cc	1cc
.	2f	1dd	.
.	2g	.	2b
=79	=79	=79	=79
0r	1c	1ee	2cc
.	.	.	2.gg
.	2.cc	2r	.
.	.	.	4ff
.	.	[2cc	4ee
.	4b-	.	4dd
=80	=80	=80	=80
0r	4a	2cc]	4cc
.	4g	.	4b-
.	4f	2cc	4a
.	4e	.	4g
.	2d	2dd	4a
.	.	.	4b-
.	2c	2ee	[2cc
=81	=81	=81	=81
0r	1d	1ff	2cc]
.	.	.	2b
.	1c	1ee	1cc
=82	=82	=82	=82
1c	1g	1cc	1ee
[1f	[1a	[1cc	[1ff
=83	=83	=83	=83
2f]	2a]	2cc]	2ff]
2B-	2f	2b-	2dd
2B-	2f	2b-	2dd
2c	2e	2g	2cc
=84	=84	=84	=84
1G	1g	1dd	1b-
2d	2f	2dd	1a
[2d	[2a	[2ff	.
=85	=85	=85	=85
2d]	2a]	2ff]	0r
2c	2a	2ee	.
2B-	2b-	2dd	.
2f	2a	2cc	.
=86	=86	=86	=86
1B-	2g	2.b-	2r
.	2f	.	1ff
.	.	4a	.
1c	1cc	2g	.
.	.	2g	2ee
=87	=87	=87	=87
2F	1a	2f	2dd
2F	.	2a	2cc
1B-	2g	1dd	2.b-
.	2f	.	.
.	.	.	4a
=88	=88	=88	=88
1c	2e	1cc	2g
.	2.f	.	2f
1c	.	1cc	1g
.	4e	.	.
.	4e	.	.
.	8d	.	.
.	8e	.	.
=89	=89	=89	=89
1F	1f	1cc	1a
2r	2r	1ff	2r
2f	2a	.	2cc
=90	=90	=90	=90
2d	2b-	2ff	2dd
2f	2a	2ff	2cc
1c	1g	1ee	1cc
=91	=91	=91	=91
2c	2g	2ee	2cc
2.d	2.f	2.dd	2.a
4d	4d	4ff	4a
2c#	2e	2ee	2a
=92	=92	=92	=92
1d	1f#	1dd	1a
2G	1g	[1dd	2b-
2g	.	.	2g
=93	=93	=93	=93
2f	0r	1dd]	2a
2d	.	.	2b-
2e	.	1r	2cc
[2f	.	.	[2dd
=94	=94	=94	=94
4f]	1r	2r	4dd]
4e	.	.	4cc
4e	.	2gg	1cc
8d	.	.	.
8c	.	.	.
1d	2r	2ff	.
.	2f	2dd	2b
=95	=95	=95	=95
0c	2g	2ee	0cc
.	2a	2.ff	.
.	2g	.	.
.	.	4ee	.
.	[2cc	4ee	.
.	.	8dd	.
.	.	8cc	.
=96	=96	=96	=96
1r	4cc]	1dd	1g
.	8b	.	.
.	8a	.	.
.	2b	.	.
1c	1cc	1cc	2g
.	.	.	[2cc
=97	=97	=97	=97
2c	0r	2r	2cc]
1f	.	2cc	2a
.	.	2cc	2a
2d	.	[2ff	[2dd
=98	=98	=98	=98
2d	0r	2ff]	4dd]
.	.	.	4cc
2.g	.	2dd	4b-
.	.	.	4a
.	.	2dd	2b-
4f	.	.	.
4e	.	[2gg	2g
4d	.	.	.
=99	=99	=99	=99
2.c	0r	4gg]	2.gg
.	.	4ff	.
.	.	4ee	.
4d	.	4dd	4ff
2e	.	4cc	4ee
.	.	4b-	4dd
[2f	.	4a	4cc
.	.	4g	4b-
=100	=100	=100	=100
4f]	2r	2f	2a
4e	.	.	.
2d	2f	1ff	2b-
1c	2g	.	1cc
.	2g	2ee	.
=101	=101	=101	=101
1F	2.a	2ff	2r
.	.	2f	2cc
.	4g	.	.
1r	2f	2a	2cc
.	2g	2b	2dd
=102	=102	=102	=102
0r	1c	2.cc	2.ee
.	.	4b-	4dd
.	2.f	1a	2cc
.	.	.	[2ff
.	4g	.	.
=103	=103	=103	=103
1r	4a	0r	4ff]
.	4g	.	4ee
.	2.b-	.	4dd
.	.	.	4cc
1B-	.	.	4dd
.	4a	.	4cc
.	4g	.	4b-
.	4f	.	4a
=104	=104	=104	=104
2c	4e	0r	2.g
.	4f	.	.
2c	2.g	.	.
.	.	.	4a
2.d	.	.	2b-
.	4f	.	.
.	[2f	.	2a
4c	.	.	.
=105	=105	=105	=105
2B-	2f]	1r	1g
2c	2e	.	.
2F	2f	2r	1a
2f	2a	2cc	.
=106	=106	=106	=106
2.d	2.a	2.ff	0r
4d	4a	4ff	.
2c	2a	2ee	.
2B-	2b-	2dd	.
=107	=107	=107	=107
2f	2a	2cc	1r
2g	2b-	2b-	.
2f	2cc	2a	2r
2f	2a	2ff	2cc
=108	=108	=108	=108
2.B-	2.b-	2.dd	2.ff
4B-	4b-	4dd	4ff
2c	2g	2cc	2ee
2G	2g	2b-	2dd
=109	=109	=109	=109
2A	2e	2a	2cc
2B-	2d	2dd	2b-
2F	2f	[1cc	1a
[2f	[2a	.	.
=110	=110	=110	=110
2f]	2a]	1cc]	0r
2e	2g	.	.
2d	2f	1r	.
[2f	[2a	.	.
=111	=111	=111	=111
4f]	4a]	1.ff	2r
4e	4g	.	.
4d	4f	.	1dd
4c	4e	.	.
2B-	2d	.	.
2c	2g	2ee	2cc
=112	=112	=112	=112
2G	2g	2dd	2b-
2d	2f	2.ff	2.dd
[1B-	2.f	.	.
.	.	4ee	4cc
.	.	4dd	4b-
.	4e	4cc	4a
=113	=113	=113	=113
2B-]	2d	2b-	2g
2A	2c	1cc	2f
1G	1d	.	1g
.	.	2b	.
=114	=114	=114	=114
2r	2r	2cc	2r
1F	1f	1cc	1a
2F	2f	2cc	2a
=115	=115	=115	=115
1c	1e	1cc	1g
2F	1f	1cc	2a
2f	.	.	2a
=116	=116	=116	=116
2d	0r	0r	2b-
2e	.	.	2g
2.f	.	.	4a
.	.	.	4g
.	.	.	4f
4e	.	.	4g
=117	=117	=117	=117
2d	2r	2r	4a
.	.	.	4b-
2c	2cc	2ee	2cc
1d	2a	2ff	1f
.	2b	2dd	.
=118	=118	=118	=118
1.c	2.cc	4ee	1g
.	.	4dd	.
.	.	4cc	.
.	4b-	4dd	.
.	2a	4ee	1cc
.	.	4ff	.
2e	2g	[2gg	.
=119	=119	=119	=119
2f	1a	4gg]	1cc
.	.	4ff	.
2F	.	1ff	.
1c	1g	.	1cc
.	.	2ee	.
=120	=120	=120	=120
2d	2r	1ff	2a
1B-	1b-	.	1dd
.	.	1r	.
2B-	2b-	.	2dd
=121	=121	=121	=121
2.f	1a	2r	1cc
.	.	1ff	.
4e	.	.	.
4d	2.b-	.	1dd
4c	.	.	.
2B-	.	2ff	.
.	4a	.	.
=122	=122	=122	=122
1c	4g	1ee	2.cc
.	4f	.	.
.	2g	.	.
.	.	.	4b-
2r	1f	1ff	2a
2f	.	.	2a
=123	=123	=123	=123
2d	1r	1r	2b-
2e	.	.	2g
4f	2r	2r	2.a
4e	.	.	.
4d	2f	2a	.
4c	.	.	8b-
.	.	.	8cc
=124	=124	=124	=124
2B-	2d	2b-	2dd
2c	2e	2g	2cc
1F	2.f	4a	1cc
.	.	4g	.
.	.	4f	.
.	4e	4g	.
=125	=125	=125	=125
0r	2d	4a	2r
.	.	4b-	.
.	2c	1cc	2ee
.	1d	.	2ff
.	.	2b	2dd
=126	=126	=126	=126
2r	1c	1.cc	4ee
.	.	.	4dd
2c	.	.	4cc
.	.	.	4dd
2A	2r	.	4ee
.	.	.	4ff
2B-	2g	2dd	[2gg
=127	=127	=127	=127
0c	2e	0cc	2gg]
.	2f	.	1ff
.	1g	.	.
.	.	.	2ee
=128	=128	=128	=128
2.d	[0f	1a	2.ff
4c	.	.	4ee
2B-	.	1b-	2dd
4A	.	.	4cc
4G	.	.	4b-
=129	=129	=129	=129
0F	0f]	0a	0cc
*-	*-	*-	*-
!!!CDT: 1525/^1526/-1594/2/2
!!!OCY: Italia
!!!AGN: Mass (Free)
!!!AST: renaissance, vocal
!!!ASW: Motet 1532 (Penet)
!!!PWK: Masses, Book 10
!!!RNB: Cadence finals: C
!!!YOR: Le Opere Complete, v. 27, p. 120
!!!YOO: Rome, Italy: Fratelli Scalera
!!!END: 1992//
!!!EED: John Miller
!!!YEC: Copyright 2000, John Miller
!!!YEN: United States of America
!!!YEM: Rights to all derivative electronic formats reserved.
!!!YEM: Refer to licensing agreement for further details.
!!!YEM: This file must be accompanied by the licensing agreement.
!!!YEM: A copy of the licensing agreement may be found at http://www.music-cog.ohio-state.edu/HumdrumDatabases/Palestrina/license.txt
!!!EMD: converted to Humdrum by Bret Aarden
